Papirus/64x64/apps/blobby.svg

<?xml version="1.0" encoding="UTF-8" standalone="no"?>
<svg
   id="_图层_1"
   version="1.1"
   viewBox="0 0 64 64" width="64" height="64"
   sodipodi:docname="blobby.svg"
   xml:space="preserve"
   inkscape:version="1.4 (e7c3feb100, 2024-10-09)"
   xmlns:inkscape="http://www.inkscape.org/namespaces/inkscape"
   xmlns:sodipodi="http://sodipodi.sourceforge.net/DTD/sodipodi-0.dtd"
   xmlns="http://www.w3.org/2000/svg"
   xmlns:svg="http://www.w3.org/2000/svg"><sodipodi:namedview
     id="namedview26"
     pagecolor="#505050"
     bordercolor="#eeeeee"
     borderopacity="1"
     inkscape:showpageshadow="0"
     inkscape:pageopacity="0"
     inkscape:pagecheckerboard="0"
     inkscape:deskcolor="#505050"
     inkscape:zoom="10.6875"
     inkscape:cx="32"
     inkscape:cy="28.912281"
     inkscape:window-width="1920"
     inkscape:window-height="939"
     inkscape:window-x="0"
     inkscape:window-y="34"
     inkscape:window-maximized="1"
     inkscape:current-layer="_图层_1" /><!-- Generator: Adobe Illustrator 29.0.1, SVG Export Plug-In . SVG Version: 2.1.0 Build 192)  --><defs
     id="defs6"><style
       id="style1">
      .st0 {
        fill-opacity: .5;
      }

      .st0, .st1, .st2, .st3, .st4, .st5, .st6, .st7 {
        fill: #fff;
      }

      .st8 {
        fill: #133c9a;
      }

      .st2, .st9 {
        display: none;
      }

      .st3 {
        fill-opacity: .2;
      }

      .st4 {
        fill-opacity: .9;
      }

      .st10 {
        fill: #3370ff;
      }

      .st11 {
        fill: url(#_未命名的渐变_3);
      }

      .st12 {
        fill: url(#_未命名的渐变);
      }

      .st5 {
        fill-opacity: .3;
      }

      .st6 {
        fill-opacity: 0;
      }

      .st7 {
        fill-opacity: .7;
      }

      .st13 {
        fill: #00d6b9;
      }

      .st14 {
        fill: url(#_未命名的渐变_2);
      }
    </style><radialGradient
       id="_未命名的渐变"
       data-name="未命名的渐变"
       cx="123.9"
       cy="-40.2"
       fx="123.9"
       fy="-40.2"
       r="59.4"
       gradientTransform="translate(-26.8 25.5) scale(.6 -.7)"
       gradientUnits="userSpaceOnUse"><stop
         offset="0"
         stop-color="#db202e"
         id="stop1" /><stop
         offset="1"
         stop-color="#e01b24"
         id="stop2" /></radialGradient><radialGradient
       id="_未命名的渐变_2"
       data-name="未命名的渐变 2"
       cx="67.6"
       cy="26.8"
       fx="67.6"
       fy="26.8"
       r="105.2"
       gradientTransform="translate(-26.6 25.3) scale(.6 -.7)"
       gradientUnits="userSpaceOnUse"><stop
         offset="0"
         stop-color="#ffb648"
         id="stop3" /><stop
         offset="1"
         stop-color="#ff7800"
         stop-opacity="0"
         id="stop4" /></radialGradient><radialGradient
       id="_未命名的渐变_3"
       data-name="未命名的渐变 3"
       cx="61.7"
       cy="18.6"
       fx="61.7"
       fy="18.6"
       r="68"
       gradientTransform="translate(-26.8 25.8) scale(.6 -.7)"
       gradientUnits="userSpaceOnUse"><stop
         offset="0"
         stop-color="#c64600"
         id="stop5" /><stop
         offset="1"
         stop-color="#a51d2d"
         id="stop6" /></radialGradient><style
       id="style1-2">
      .st0, .st1, .st2, .st3, .st4, .st5 {
        isolation: isolate;
      }

      .st0, .st1, .st6, .st7, .st5, .st8 {
        display: none;
      }

      .st0, .st3, .st4, .st5 {
        opacity: .2;
      }

      .st1 {
        opacity: .1;
      }

      .st1, .st9, .st2, .st4, .st5 {
        fill: #fff;
      }

      .st10 {
        fill: #3f3f3f;
      }

      .st2 {
        opacity: .3;
      }

      .st6 {
        fill: #505d6e;
      }

      .st11, .st8 {
        fill: #ffcca3;
      }

      .st12 {
        fill: #fed24c;
      }

      .st13 {
        fill: #c2352a;
      }
    </style></defs><path
     class="st1"
     d="M 47.5,64.1 H 13.8 C 6.2,64.1 0,57.8 0,50.3 V 13.7 C 0,6.2 6.2,0 13.7,0 H 50.3 C 57.8,0 64,6.2 64,13.7 V 50.3 C 64,57.8 57.8,64 50.3,64 h -2.9 0.1 z"
     id="path6"
     style="display:inline;opacity:1;fill:#e4e4e4;fill-opacity:1" /><g
     id="g27"
     transform="matrix(1.1420217,0,0,1.136247,-4.4043442,-4.4192572)"><path
       style="opacity:0.2"
       d="m 28.451172,5.2304688 c -0.847928,0.1064059 -1.679803,0.2575487 -2.501953,0.4375 -1.198142,8.2707582 0.201933,17.1403362 4.671875,24.9316402 -2.296,3.658848 -5.051225,7.087916 -8.265625,9.603516 -6.646303,-8.605838 -9.005611,-19.338387 -7.513672,-29.326172 -0.941039,0.729713 -1.848173,1.497845 -2.6875,2.339844 -0.828285,9.924661 1.945262,19.998368 8.136719,28.587891 -3.558179,2.501691 -7.504299,4.414438 -11.6523441,5.601562 a 28,28 0 0 0 1.4316401,2.001953 c 9.137959,-2.910618 17.35103,-8.920801 22.619141,-17.666015 4.362458,4e-6 8.723693,0.914997 12.626953,2.287109 C 40.315682,45.7235 30.364465,53.899273 18.794922,56.677734 a 28,28 0 0 0 3.537109,1.5625 c 10.965168,-3.645551 20.3241,-11.93864 25.050781,-23.066406 3.980713,1.87817 7.564768,4.33816 10.605469,7.185547 A 28,28 0 0 0 58.90625,39.660156 C 51.898904,33.488366 42.829142,29.676635 32.689453,29.457031 30.393451,25.569437 29.016985,21.452276 28.328125,17.335938 c 1.521094,-0.171514 3.030757,-0.256193 4.525391,-0.259766 10.049972,-0.02402 19.380722,3.674923 26.511718,9.996094 -0.299526,-1.399118 -0.719802,-2.748683 -1.21875,-4.060547 -8.360086,-6.367202 -18.987552,-9.505375 -30.048828,-7.962891 -0.21414,-3.200055 -0.204734,-6.5915365 0.353516,-9.8183592 z"
       id="path2" /><path
       style="fill:#4f4f4f"
       d="m 28.450782,4.2296874 c -0.847928,0.106406 -1.679804,0.2575488 -2.501954,0.4375 -1.198142,8.2707586 0.203104,17.1407266 4.673046,24.9320306 -2.296,3.658848 -5.051614,7.087526 -8.266014,9.603126 -6.646303,-8.605838 -9.006002,-19.338387 -7.514063,-29.3261722 -0.941039,0.7297132 -1.848564,1.4986262 -2.687891,2.3406252 -0.828285,9.924661 1.946043,19.998367 8.1375,28.587889 -3.713704,2.611038 -7.847706,4.589588 -12.1953124,5.76133 0.4270166,0.701294 0.881955,1.38119 1.3671878,2.039844 9.3819016,-2.833992 17.8407326,-8.924338 23.2257826,-17.863674 4.362458,4e-6 8.724082,0.913826 12.627342,2.285938 -5.180476,12.114554 -15.668456,20.47161 -27.770313,22.944142 1.07005,0.644664 2.175158,1.237028 3.333205,1.736328 11.589774,-3.373802 21.569532,-11.917122 26.504296,-23.534766 4.105596,1.937092 7.793214,4.48935 10.89375,7.451172 0.329824,-0.904878 0.61368,-1.829028 0.85039,-2.77539 C 52.0911,32.564288 42.93404,28.678134 32.689064,28.45625 c -2.296002,-3.887594 -3.67247,-8.005146 -4.36133,-12.121484 1.521094,-0.171514 3.030756,-0.256193 4.52539,-0.259766 10.049972,-0.02402 19.381504,3.675703 26.5125,9.996874 -0.299526,-1.399118 -0.720582,-2.748682 -1.21953,-4.060546 -8.360086,-6.367202 -18.98677,-9.504984 -30.048046,-7.9625 -0.21414,-3.200055 -0.205516,-6.5923178 0.352734,-9.8191406 z"
       id="path3" /></g></svg>

<svg xmlns="http://www.w3.org/2000/svg" width="64" height="64" version="1">
 <circle style="opacity:0.2" cx="32" cy="33" r="28"/>
 <circle style="fill:#e4e4e4" cx="32" cy="32" r="28"/>
 <path style="opacity:0.2" d="M 28.451172 5.2304688 C 27.603244 5.3368747 26.771369 5.4880175 25.949219 5.6679688 C 24.751077 13.938727 26.151152 22.808305 30.621094 30.599609 C 28.325094 34.258457 25.569869 37.687525 22.355469 40.203125 C 15.709166 31.597287 13.349858 20.864738 14.841797 10.876953 C 13.900758 11.606666 12.993624 12.374798 12.154297 13.216797 C 11.326012 23.141458 14.099559 33.215165 20.291016 41.804688 C 16.732837 44.306379 12.786717 46.219126 8.6386719 47.40625 A 28 28 0 0 0 10.070312 49.408203 C 19.208271 46.497585 27.421342 40.487402 32.689453 31.742188 C 37.051911 31.742192 41.413146 32.657185 45.316406 34.029297 C 40.315682 45.7235 30.364465 53.899273 18.794922 56.677734 A 28 28 0 0 0 22.332031 58.240234 C 33.297199 54.594683 42.656131 46.301594 47.382812 35.173828 C 51.363525 37.051998 54.94758 39.511988 57.988281 42.359375 A 28 28 0 0 0 58.90625 39.660156 C 51.898904 33.488366 42.829142 29.676635 32.689453 29.457031 C 30.393451 25.569437 29.016985 21.452276 28.328125 17.335938 C 29.849219 17.164424 31.358882 17.079745 32.853516 17.076172 C 42.903488 17.052152 52.234238 20.751095 59.365234 27.072266 C 59.065708 25.673148 58.645432 24.323583 58.146484 23.011719 C 49.786398 16.644517 39.158932 13.506344 28.097656 15.048828 C 27.883516 11.848773 27.892922 8.4572915 28.451172 5.2304688 z"/>
 <path style="fill:#4f4f4f" d="m 28.450782,4.2296874 c -0.847928,0.106406 -1.679804,0.2575488 -2.501954,0.4375 -1.198142,8.2707586 0.203104,17.1407266 4.673046,24.9320306 -2.296,3.658848 -5.051614,7.087526 -8.266014,9.603126 -6.646303,-8.605838 -9.006002,-19.338387 -7.514063,-29.3261722 -0.941039,0.7297132 -1.848564,1.4986262 -2.687891,2.3406252 -0.828285,9.924661 1.946043,19.998367 8.1375,28.587889 -3.713704,2.611038 -7.847706,4.589588 -12.1953124,5.76133 0.4270166,0.701294 0.881955,1.38119 1.3671878,2.039844 9.3819016,-2.833992 17.8407326,-8.924338 23.2257826,-17.863674 4.362458,4e-6 8.724082,0.913826 12.627342,2.285938 -5.180476,12.114554 -15.668456,20.47161 -27.770313,22.944142 1.07005,0.644664 2.175158,1.237028 3.333205,1.736328 11.589774,-3.373802 21.569532,-11.917122 26.504296,-23.534766 4.105596,1.937092 7.793214,4.48935 10.89375,7.451172 0.329824,-0.904878 0.61368,-1.829028 0.85039,-2.77539 C 52.0911,32.564288 42.93404,28.678134 32.689064,28.45625 c -2.296002,-3.887594 -3.67247,-8.005146 -4.36133,-12.121484 1.521094,-0.171514 3.030756,-0.256193 4.52539,-0.259766 10.049972,-0.02402 19.381504,3.675703 26.5125,9.996874 -0.299526,-1.399118 -0.720582,-2.748682 -1.21953,-4.060546 -8.360086,-6.367202 -18.98677,-9.504984 -30.048046,-7.9625 -0.21414,-3.200055 -0.205516,-6.5923178 0.352734,-9.8191406 z"/>
 <path style="opacity:0.2;fill:#ffffff" d="M 32 4 A 28 28 0 0 0 4 32 A 28 28 0 0 0 4.0175781 32.492188 A 28 28 0 0 1 32 5 A 28 28 0 0 1 59.974609 32.492188 A 28 28 0 0 0 60 32 A 28 28 0 0 0 32 4 z"/>
</svg>
